Catalina-dark/actions/22/dialog-tile-clones.svg

<svg xmlns="http://www.w3.org/2000/svg" viewBox="0 0 22 22">
  <defs id="defs3051">
    <style type="text/css" id="current-color-scheme">
      .ColorScheme-Text {
        color:#f2f2f2;
      }
      .ColorScheme-Highlight {
        color:#3daee9;
      }
      </style>
  </defs>
 <path 
     style="fill:currentColor;fill-opacity:1;stroke:none" 
     d="M 3 3 L 3 9.6660156 L 9.6660156 9.6660156 L 9.6660156 3 L 3 3 z M 12.333984 3 L 12.333984 9.6660156 L 19 9.6660156 L 19 3 L 12.333984 3 z M 4.3339844 4.3339844 L 8.3339844 4.3339844 L 8.3339844 8.3339844 L 4.3339844 8.3339844 L 4.3339844 4.3339844 z M 13.666016 4.3339844 L 17.666016 4.3339844 L 17.666016 8.3339844 L 13.666016 8.3339844 L 13.666016 4.3339844 z M 3 12.333984 L 3 19 L 9.6660156 19 L 9.6660156 12.333984 L 3 12.333984 z M 4.3339844 13.666016 L 8.3339844 13.666016 L 8.3339844 17.666016 L 4.3339844 17.666016 L 4.3339844 13.666016 z "
     class="ColorScheme-Text"
     />
 <path 
     style="fill:currentColor;fill-opacity:1;stroke:naone" 
     class="ColorScheme-Highlight"
     d="M 15.666016 11 A 2 2 0 0 0 13.666016 13 L 13.666016 15 L 12.333984 15 L 12.333984 19 L 19 19 L 19 15 L 17.666016 15 L 17.666016 13 A 2 2 0 0 0 15.666016 11 z M 15.666016 12.333984 A 0.66666665 0.66666665 0 0 1 16.333984 13 L 16.333984 15 L 15 15 L 15 13 A 0.66666665 0.66666665 0 0 1 15.666016 12.333984 z "
     />
</svg>

<svg width="22" height="22" viewBox="3 3 16 16" xmlns="http://www.w3.org/2000/svg">
<defs>
<style id="current-color-scheme" type="text/css">.ColorScheme-Text {
        color:#f2f2f2;
      }
      .ColorScheme-Highlight {
        color:#3daee9;
      }</style>
</defs>
<path class="ColorScheme-Text" d="m3 3v6.666h6.666v-6.666h-6.666zm9.334 0v6.666h6.666v-6.666h-6.666zm-8 1.334h4v4h-4v-4zm9.332 0h4v4h-4v-4zm-10.666 8v6.666h6.666v-6.666h-6.666zm1.334 1.332h4v4h-4v-4z" fill="currentColor"/>
<path class="ColorScheme-Highlight" d="m15.666 11a2 2 0 0 0-2 2v2h-1.332v4h6.666v-4h-1.334v-2a2 2 0 0 0-2-2zm0 1.334a0.66667 0.66667 0 0 1 0.66797 0.66602v2h-1.334v-2a0.66667 0.66667 0 0 1 0.66602-0.66602z" fill="currentColor" stroke="naone"/>
</svg>
